X: 10895
T: Drowsy Maggie
R: reel
M: 4/4
K: Edorian
d2fd c2ec|defg faaf|d2fd c2ec|BABc dAFA|
d2fd c2ec|defg faaf|bgaf gefd|BABc dAFD||

